X:1
T:The Simple, Earnest Prayer
T:John Robson Sweney
T:The Simple, Earnest Prayer
T:Public Domain
T:Public Domain
T:Public Domain
C:John Robson Sweney
Z:Public Domain
%%score ( 1 2 ) ( 3 4 )
L:1/8
M:4/4
K:Ab
V:1 treble 
V:2 treble 
V:3 bass 
V:4 bass 
V:1
 [A,C][B,D] | [CE][=B,=D][CE][Ec] [_D^A][C^G]CD | [CE][=B,=D][CE][EA] [EG]2 [EG][EA] | %3
w: 1.~In the|twi- light of the morn- ing, When the|steal a- way, And we wake from|
w: 2.~In the|noon- tide, calm and peace- ful, When we|while to rest, Ere the sun in|
w: 3.~When the|toils of day are o- ver, And we|hal- lowed place Where by faith we|
 [EB][E=A][EB][Ed] [Ed][Ec][Ec][=EB] | [FA][FB][FA][DF] [CE]2 [A,C][B,D] | %5
w: balm- y slum- ber To be- hold a-|no- ther day, Let us go a-|
w: all its glo- ry Is de- clin- ing|towards the west; In the midst of|
w: meet our Sav- ior, And a- dore Him|for His grace; How we feel our|
 [CE][=B,=D][CE][CA] [Ec][Ec][Ec][_Ge] | [Fe][Fd][FA][_FB] [Ec]2 [Ec][Ec] | %7
w: lone in se- cret, And un- bur- den|all our care At the feet of|
w: our temp- ta- tion, When the cross is|hard to bear, If we can- not|
w: bur- den light- er, Till we loose our|weight of care, While we lift our|
 [Dc][DB][DE][Dc] [CB][CA][CE][EA] | [EA][EG] [Ec]>[DB] [CA]2 ||"^Refrain" [CE][CA] | %10
w: our Re- deem- er, In the sim- ple,|ear- nest prayer. Let Thy|pre- sence,|
w: go in sec- ret, God will hear the|si- lent prayer. * *||
w: hearts to- ge- ther In the sim- ple,|ear- nest prayer. * *||
 (EEEE) (EE)E[EG] | (EEEE) (EE) E>E | [DF]2 [DB]2 [DA]2 [DF]2 | (C2 CC C2) [CA][DB] | %14
w: bless- * * * èd * Sav- ior,|ion * * * ev- * er be;|ev- ery tri- al,|Keep, * * * oh, keep|
w: ||||
w: ||||
 [Ec]4- [Ec][_Ge][Fd][Ec] | [DB]4 [Fd]2 [Fc][FB] | [EA]2 [EG]2 [Ec]3 [DB] | [CA]6 |] %18
w: close * to Thee. *||||
w: ||||
w: ||||
V:2
 x2 | x6 CD | x8 | x8 | x8 | x8 | x8 | x8 | x6 || x2 | c4 B2 E x | d4 c2 E>E | x8 | E6 x2 | x8 | %15
w: |sha- dows|||||||||Our pro- tect-|Give us strength for||us||
w: |pause a-||||||||||||||
w: |seek the||||||||||||||
 x8 | x8 | x6 |] %18
w: |||
w: |||
w: |||
V:3
 [A,,E,][A,,E,] | [A,,A,][A,,A,][A,,A,][A,,A,] [A,,E,][A,,E,][A,,E,][A,,E,] | %2
w: ~ ~|~ ~ ~ ~ ~ ~ ~ ~|
 [A,,A,][A,,A,][A,,A,][A,,C] [E,B,]2 [E,B,][E,C] | [E,D][E,C][E,D][G,B,] A,A,[A,,A,][C,A,] | %4
w: ~ ~ ~ ~ ~ ~ ~|~ ~ ~ ~ ~ ~ ~ ~|
 [D,A,][D,A,][D,A,][D,A,] [A,,A,]2 [A,,E,][A,,E,] | %5
w: ~ ~ ~ ~ ~ ~ ~|
 [A,,A,][A,,A,][A,,A,][A,,A,] [A,,A,][A,,A,][A,,A,][C,A,] | %6
w: ~ ~ ~ ~ ~ ~ ~ ~|
 [D,A,][D,A,][D,A,][D,A,] [A,,A,]2 [A,,A,][A,,A,] | %7
w: ~ ~ ~ ~ ~ ~ ~|
 [E,G,][E,G,][E,G,][E,G,] [A,,A,][A,,E,][A,,A,][A,,C] | [E,C][E,B,] [E,A,]>[E,G,] [A,,A,]2 || %9
w: ~ ~ ~ ~ ~ ~ ~ ~|~ ~ ~ Let Thy|
 [A,,A,][A,,A,] | [A,,A,][A,,A,][A,,A,][A,,A,] [E,G,][E,G,][E,G,][E,B,] | %11
w: pre- sence,|bless- èd Sav- ior, Let Thy pre- sence,|
 [G,B,][G,B,][G,B,][G,B,] A,A, [C,A,]>[C,A,] | [D,A,]2 [D,F,]2 [D,F,]2 [D,A,]2 | %13
w: bless- èd Sav- ior, ~ ~ ~ ~|~ ev- er be;|
 [A,,A,]2 [C,A,][E,A,] A,2 z2 | z2 A,A, A, z z2 | z [D,F,][D,F,][D,F,] [D,B,][D,B,][D,E][D,D] | %16
w: Give us strength for|ery tri- al,||
 [E,C]2 [E,B,]2 [E,A,]3 [E,G,] | [A,,A,]6 |] %18
w: ||
V:4
 x2 | x8 | x8 | x4 A,A, x2 | x8 | x8 | x8 | x8 | x6 || x2 | x8 | x4 A,A, x2 | x8 | x4 A,2 x2 | %14
w: |||~ ~||||||||~ ~||ev-|
 x2 A,A, A, x3 | x8 | x8 | x6 |] %18
w: ||||

